X: 34070
T: Reel De Montebello
R: reel
M: 4/4
K: Aminor
EABc ecBA|FABc ecBA|GABc dBGB|edBA G2ED|
EABc ecBA|FABc AcBA|GABc dBGD|EDEG A4:|:
aece gecA|GABc dcBd|gddf ddgd|edef e2ce|
aece gecA|GABc dcBd|gedg edBd|1 cBcd cAce:|2 cBcd cBAG||

